X:1
T:Opera Reel
S:ChristopherGeorge Partington <ChrisTheFiddlerPartington@Hotmail.com> tradtunes 2006-9-11
M:C|
L:1/8
K:D
A,2|D2 D2 FE FA|DC DF ED B,A,|D2 D2 FE FA|Bd AF ED CE|
D2 D2 FE FA|DC DF ED B,A,|D2 D2 FE FA|(3Bcd AF E2||\
|:(3ABc|dc ec dA FA|Ad cd eg fe|dc ec dA FA|Bd AF E2:||\
|:fg|af af gf ge|fa fe dc BA|af af gf ge|fa ec d2:|\
||(3ABc|de fd ef ge|fa ec dc BA|de fd ef ge|fa ec d2 (3ABc|
de fd ef ge|fa ec dc BA|de fd ef ge|fa ec d2|]
